X: 7911
T: Conal's
R: reel
M: 4/4
K: Dmajor
|:FG|Adfe dA3|FAdA gfed|(3Bcd ed cA3|GAce gece|
d2fe dA3|FAdA gfed|(3Bcd ed cABc|dfec d2:|
|:d'c'|b2ba bagd|B2Bc defg|a2a^g agfd|A2AB =cAFA|
GABd g2ag|FAde f2fd|ecef gece|1 defg a2:|2 dfec d2||

